X: 65
T:The Peat Bog
M:4/4
L:1/8
Z:abc by Bruce Osborne - bosborne@kos.net
K:D
de|f2 ed edBd|AFAd AFAd|f2 ed edBA|Beef e2 de|!
f2 ed edBd|AFAd AFAd|fafd egec|eddc d2:|!
|:cd|eAAA fAAA|gAAA aAAA|bagf gfed|cdef egfe|!
f2 ed edBd|AFAd AFAd|fafd egec|eddc d2:|!
